assets/icons/folder_icons/folder-out-open.svg

<?xml version="1.0" encoding="UTF-8"?><svg id="Done" xmlns="http://www.w3.org/2000/svg" xmlns:xlink="http://www.w3.org/1999/xlink" viewBox="0 0 14 14"><defs><style>.cls-1{fill:#c6c6c6;}.cls-1,.cls-2,.cls-3,.cls-4,.cls-5,.cls-6{fill-rule:evenodd;}.cls-7{opacity:.3;}.cls-7,.cls-8{isolation:isolate;}.cls-9{fill:#40a0ff;}.cls-2,.cls-10{fill:#fc0;}.cls-3{fill:#a43a00;}.cls-4{fill:#c87137;stroke:#000;stroke-linejoin:round;stroke-width:2px;}.cls-5{fill:#fd741a;}.cls-11{fill:url(#linear-gradient);}.cls-6{fill:#502d16;}.cls-8{fill:url(#radial-gradient);opacity:.711;}</style><radialGradient id="radial-gradient" cx="109.0472" cy="-97.826" fx="109.0472" fy="-97.826" r="1.5875" gradientTransform="translate(-247.3619 -431.6064) rotate(33.6901) scale(4.1287 -2.2712)" gradientUnits="userSpaceOnUse"><stop offset="0" stop-color="#000"/><stop offset="1" stop-color="#000" stop-opacity="0"/></radialGradient><linearGradient id="linear-gradient" x1="62.3777" y1="-110.2096" x2="62.9069" y2="-110.2096" gradientTransform="translate(-230.7584 -408.0408) scale(3.7795 -3.7795)" gradientUnits="userSpaceOnUse"><stop offset="0" stop-color="#000"/><stop offset="1" stop-color="#000" stop-opacity="0"/></linearGradient></defs><g id="Layer_20"><path id="path579" class="cls-9" d="m0-.0005v12l4.1131,1.9355c.3105.1468.681.0135.8275-.2976.0393-.0834.0596-.1746.0594-.2668v-2.3711h6V.9995c-.004-.745-.4086-.9893-1-1H0Z"/><path id="path580" class="cls-7" d="m-.0179-.0005l4.0855,1.5882c.5621.2185.9324.7597.9324,1.3628v8.049h6V.9995c-.004-.745-.4093-.9893-1.0016-1H-.0179Z"/><path id="path582" class="cls-8" d="m10,10.9995c.7057-.0798,1.0812-.3798,1-.9844v-5.0156c.6647-.0018.998-.3352,1-1V.9995c.0053-.6399-.3093-.9903-1-1H0v11h10Z"/><path id="path201" class="cls-4" d="m7,3.9995s-1,0-1,1v1h-2c-1,0-1,.7891-1,.7891v5.2114s1-.0005,1-.0005l.4891,1h7.5109s1,0,1-1v-1s0-3,0-3h0v-1c0-1-1-1-1-1h-2v-1c0-1-1-1-1-1h-2Zm0,1h2v1h-2v-1Z"/><path id="path202" class="cls-5" d="m4,5.9995c-1,0-1,.7892-1,.7892v1.1483s0,3.0625,0,3.0625v1s0,1,1,1h8s1,0,1-1v-4h0v-1c0-1-1-1-1-1H4Z"/><path id="path203" class="cls-3" d="m3.0104,8.0037l1.9958,1.9958,5.9349.0526,2.0484-2.0484s-.9979,3.9917-3.0633,3.9963h-3.9917c-1.9264-.0046-2.9243-3.9963-2.9243-3.9963Z"/><path id="path204" class="cls-6" d="m5,9.9995h6l-1,1h-4l-1-1Z"/><path id="path205" class="cls-2" d="m9,8.9995v2l-1.0156,1-.9844-1v-2h2Z"/><path id="path213" class="cls-1" d="m6,4.9995c0-1,1-1,1-1h2s1,0,1,1v1h-1v-1h-2v1h-1v-1Z"/><rect id="rect213" class="cls-10" x="6" y="5.9995" width="1" height="1"/><rect id="rect214" class="cls-10" x="9" y="5.9995" width="1" height="1"/><path id="path589" class="cls-11" d="m5,4.9995l1-1h1v9h-2v-8Z"/><path id="Flap" class="cls-9" d="m5,2.9511c.0005-.6031-.3694-1.1446-.9315-1.3632L0,.0056v11.994l4.1131,1.9355c.3105.1468.681.0135.8275-.2976.033-.0701.0446-.1472.0499-.2242l.0095-10.4621Z"/></g></svg>

<svg xmlns="http://www.w3.org/2000/svg" id="Done" viewBox="0 0 14 14"><defs><radialGradient id="radial-gradient" cx="109.047" cy="-97.826" r="1.587" fx="109.047" fy="-97.826" gradientTransform="matrix(3.43528 2.2902 1.25984 -1.88975 -247.362 -431.606)" gradientUnits="userSpaceOnUse"><stop offset="0"/><stop offset="1" stop-opacity="0"/></radialGradient><linearGradient id="linear-gradient" x1="62.378" x2="62.907" y1="-110.21" y2="-110.21" gradientTransform="matrix(3.7795 0 0 -3.7795 -230.758 -408.04)" gradientUnits="userSpaceOnUse"><stop offset="0"/><stop offset="1" stop-opacity="0"/></linearGradient><style>.cls-9{fill:#40a0ff}.cls-10{fill:#fc0}</style></defs><g id="Layer_20"><path id="folder" d="M0 0v12l4.113 1.935A.62.62 0 0 0 5 13.371v-2.372h6V1c-.004-.745-.409-.989-1-1z" class="cls-9"/><path id="folder_shadow" d="m-.018 0 4.086 1.588c.562.218.932.76.932 1.363v8.048h6V1c-.004-.745-.41-.989-1.002-1z" opacity=".3" style="isolation:isolate"/><path id="flap_shadow" fill="url(#radial-gradient)" d="M10 11c.706-.08 1.081-.38 1-.985V5q.997-.002 1-1V1c.005-.64-.31-.99-1-1H0v11z" opacity=".711" style="isolation:isolate"/><g id="g408"><path id="path402" fill-rule="evenodd" stroke="#000" stroke-linejoin="round" stroke-width="2" d="M7 4S6 4 6 5v1H4c-1 0-1 .79-1 .79V12s0 1 1 1h8s1 0 1-1V7a1 1 0 0 0-1-1h-2V5c0-1-1-1-1-1zm0 1h2v1H7z"/><path id="path403" fill="#fd741a" fill-rule="evenodd" d="M4 6c-1 0-1 .79-1 .79V12s0 1 1 1h8s1 0 1-1V7c0-1-1-1-1-1z"/><path id="path404" fill="#8e3d00" fill-rule="evenodd" d="M3.012 8.005 5.007 10l5.934.053 2.047-2.048s-.997 3.99-3.062 3.995h-3.99c-1.927-.005-2.924-3.995-2.924-3.995"/><path id="path405" fill="#502d16" fill-rule="evenodd" d="M5 10h6l-1 1H6z"/><path id="path406" fill="#fc0" fill-rule="evenodd" d="M9 9v2l-1.016 1L7 11V9z"/><path id="path407" fill="#c6c6c6" fill-rule="evenodd" d="M6 5c0-1 1-1 1-1h2s1 0 1 1v1H9V5H7v1H6z"/><path id="rect407" d="M6 6h1v1H6z" class="cls-10"/><path id="rect408" d="M9 6h1v1H9z" class="cls-10"/></g><path id="icon_shadow" fill="url(#linear-gradient)" d="m5 5 1-1h1v9H5z"/><path id="Flap" d="M5 2.951c0-.603-.37-1.145-.931-1.363L0 .006V12l4.113 1.935c.31.147.681.014.828-.298a.6.6 0 0 0 .05-.224z" class="cls-9"/></g></svg>
